public/images/icons/src/Competition.svg

<?xml version="1.0" encoding="utf-8"?>
<!-- Generated by IcoMoon.io -->
<!DOCTYPE svg PUBLIC "-//W3C//DTD SVG 1.1//EN" "http://www.w3.org/Graphics/SVG/1.1/DTD/svg11.dtd">
<svg version="1.1" xmlns="http://www.w3.org/2000/svg" xmlns:xlink="http://www.w3.org/1999/xlink" width="32" height="32" viewBox="0 0 32 32">
<path fill="#444444" d="M7.655 27.401l1.582-9.224-6.702-6.532 9.261-1.346 4.142-8.392 4.142 8.392 9.261 1.346-6.702 6.532 1.582 9.224-8.284-4.355zM5.287 12.539l5.326 5.192-1.257 7.331 6.584-3.461 6.584 3.461-1.257-7.331 5.326-5.192-7.361-1.070-3.292-6.67-3.292 6.67-0.666 0.097z"></path>
</svg>

<?xml version="1.0" encoding="utf-8"?> <!-- Generator: IcoMoon.io --> <!DOCTYPE svg PUBLIC "-//W3C//DTD SVG 1.1//EN" "http://www.w3.org/Graphics/SVG/1.1/DTD/svg11.dtd"> <svg width="32" height="32" viewBox="0 0 32 32" version="1.1" xmlns="http://www.w3.org/2000/svg" xmlns:xlink="http://www.w3.org/1999/xlink" xmlns:sketch="http://www.bohemiancoding.com/sketch/ns" fill="#000000"> <g><path d="M 7.655,27.401 L 9.237,18.177 L 2.536,11.645 L 11.797,10.299 L 15.939,1.907 L 20.081,10.299 L 29.342,11.645 L 22.641,18.177 L 24.223,27.401 L 15.939,23.046 Z M 5.287,12.539 L 10.131,17.261 L 10.613,17.731 L 10.499,18.394 L 9.355,25.062 L 15.343,21.913 L 15.939,21.6 L 16.535,21.913 L 22.523,25.062 L 21.379,18.394 L 21.265,17.731 L 21.747,17.261 L 26.592,12.539 L 19.897,11.566 L 19.231,11.469 L 18.933,10.866 L 15.939,4.799 L 12.945,10.866 L 12.647,11.469 L 11.981,11.566 Z M 5.287,12.539"></path></g></svg>
